!!!OTL: Song of the Croppy Boy
!!!ONM: 85.
**kern
*clefG2
*k[b-e-]
*F:
*M3/4
*MM80
{4d
=1
[4f
4f]
4g
=2
(4f
4d)
4d
=3
(4c
4B-)
4A
=4
4.B-
8r}
{4d
=5
4f
4f
4g
=6
4a
4a
4c
=7
2B-
4A
=8
2B-
4r}
=9
{4b-
4b-
4b-
=10
(4b-
4cc)
4dd
=11
(4b-
4g)
(8a
8f)
=12
4.b-
8r}
{8b-
8cc
=13
2dd
4b-
=14
4g
4b-
4g
=15
2f
4d
=16
2f}
==
*-
!!!CNT: Folksongs of Maritime Canada
!!!MRD: 1928///-1932///
!!!OCL: Helen Creighton
!!!YOR: Songs and Ballads from Nova Scotia
!!!PPR: J.M. Dent & Sons, Limited
!!!PPP: Toronto, Canada
!!!PDT: 1932///
!!!reprint: Dover Publications, 1992: ISBN 0-486-21703-5
!!!ENC1: Craig Stuart Sapp (music and bibliographic data)                       
!!!ENC2: Marcus Pearce (phrase markings and key designations)                   
!!!ENC3: Darrell Conklin (phrase markings and key designations)   
!!!END: 2002/04/10/
!!!EEV: 2004/06/05
!!!MPN: Mr. Richard Hartlan
!!!PPG: 183
!!!EFL: 86/152
!!!ARE: Canada; Nova Scotia
!!!verses: 8
!!!VTS: 4155327841
